assets/img/ticon12.svg

<svg width="48" height="48" viewBox="0 0 48 48" fill="none" xmlns="http://www.w3.org/2000/svg">
<circle cx="24" cy="24" r="24" fill="#FFC940"/>
<g clip-path="url(#clip0)">
<path d="M13 18.3858V24.4772C13 25.797 14.0719 26.8629 15.399 26.8629H16.7466V22.3655H15.8074V20.9645C15.8074 20.7107 16.0218 20.4975 16.277 20.4975H32.2128C32.468 20.4975 32.6824 20.7107 32.6824 20.9645V22.3655H31.7432V26.8629H33.0907C34.4179 26.8629 35.4898 25.797 35.4898 24.4772V18.3858C35.4898 17.066 34.4179 16 33.0907 16H15.399C14.0719 16 13 17.066 13 18.3858Z" fill="black"/>
<path d="M27.2412 29.3908L24.5768 31.9695C24.3726 32.1624 24.0561 32.1624 23.8519 31.9695L21.2589 29.3908C20.9935 29.1269 20.9935 28.6903 21.2589 28.4264C21.5244 28.1624 21.9633 28.1624 22.2288 28.4264L24.1072 30.2944C24.1786 30.3553 24.2807 30.3655 24.3522 30.2944L26.2612 28.4467C26.5266 28.1929 26.9554 28.1523 27.231 28.4061C27.5169 28.67 27.5169 29.1167 27.2412 29.3908ZM21.2487 24.4771C21.5141 24.2132 21.9531 24.2132 22.2185 24.4771L24.097 26.3452C24.1684 26.4162 24.2705 26.4162 24.342 26.3452L26.251 24.4974C26.5164 24.2436 26.9452 24.203 27.2208 24.4568C27.5169 24.7208 27.5169 25.1776 27.231 25.4518L24.5666 28.0304C24.3624 28.2233 24.0459 28.2233 23.8417 28.0304L21.2487 25.4416C20.9833 25.1776 20.9833 24.7512 21.2487 24.4771ZM18.8088 22.4061V32.2944C18.8088 33.2386 19.5745 34 20.5239 34H27.9763C28.9257 34 29.6913 33.2386 29.6913 32.2944V22.4061H18.8088Z" fill="black"/>
</g>
<defs>
<clipPath id="clip0">
<rect width="22.5" height="18" fill="white" transform="translate(13 16)"/>
</clipPath>
</defs>
</svg>

<svg width="48" height="48" fill="none" xmlns="http://www.w3.org/2000/svg"><circle cx="24" cy="24" r="24" fill="#FFC940"/><g clip-path="url(#clip0)" fill="#000"><path d="M13 18.386v6.091a2.39 2.39 0 002.399 2.386h1.348v-4.497h-.94v-1.401c0-.254.215-.468.47-.468h15.936c.255 0 .47.214.47.468v1.4h-.94v4.498h1.348a2.39 2.39 0 002.399-2.386v-6.091A2.39 2.39 0 0033.09 16H15.4a2.39 2.39 0 00-2.4 2.386z"/><path d="M27.241 29.39l-2.664 2.58a.526.526 0 01-.725 0l-2.593-2.58a.684.684 0 010-.964.693.693 0 01.97 0l1.878 1.868c.072.061.174.072.245 0l1.91-1.847c.265-.254.693-.295.969-.04a.68.68 0 01.01.984zm-5.992-4.913a.693.693 0 01.97 0l1.878 1.868a.168.168 0 00.245 0l1.909-1.848c.265-.253.694-.294.97-.04.296.264.296.72.01.995l-2.664 2.578a.526.526 0 01-.725 0l-2.593-2.588a.684.684 0 010-.965zm-2.44-2.07v9.887c0 .945.765 1.706 1.715 1.706h7.452c.95 0 1.715-.761 1.715-1.706v-9.888H18.81z"/></g><defs><clipPath id="clip0"><path fill="#fff" transform="translate(13 16)" d="M0 0h22.5v18H0z"/></clipPath></defs></svg>
